X: 0923
M: 4/4
L: 1/8
K: D
|:\
f2f>f fagf | e2e>e e2d2 | (3cde (3fed c2B2 | A2A>A A2z2 :|
|:\
e2e>e e2(3fed | e2e>e e2fg | aafg aagf | e2e>e e2z2 |\

